X:1
T:Jim Keefe's
R:polka
M:2/4
L:1/8
K:D
|:~a2 af/a/|ba fa|~g2 B>c|ed c/B/A|
|~a2 af/a/|ba fa|~g2 B>c|1 ed df:|2 ed de|]
|:~f2 fe|dc BA|~g2 g>a|ba f/g/a|
|~f2 fe|dc BA|~g2 B>c|1 ed de:|2 ed df|]